**kern	**kern
*staff1	*staff1
*head1[head1a]	*head1[head1a]
*solo1[solo1a]	*solo1[solo1a]
*solo2[solo2a]	*solo2[solo2a]
=1-	=1-
*clefG2	*clefG2
*k[]	*k[]
*F:	*F:
*M4/4	*M4/4
1r	.
=2	=2
1r	.
=3	=3
1r	.
=4	=4
1r	.
=5	=5
*>head1a	*>head1a
{4f/	1F:maj
8r	.
8c/	.
8f/L	.
8g/	.
8f/	.
8d/J	.
=6||	=6||
8f/L	2E:h7
8b-/	.
8a/	.
8f/J	.
8ee/L	2A:dom
8cc#/	.
8a/	.
8g/J	.
=7	=7
8a\L	2D:min
8cc\	.
8b-\	.
16cc\L	.
16b-\JJ	.
8a/L	2G:dom
8f/J	.
4g/}	.
=8	=8
8r	2C:min
{[8dd\	.
4dd\]	.
8cc/L	2F:dom
8a/	.
8f/	.
8e-/J	.
=9	=9
4d/	1B-:dom
8r	.
[8b\	.
8b\L]	.
[8b-\	.
8b-\]	.
8f\J	.
=10	=10
8cc\L	1B-:dom
8cc\	.
8b-\	.
8f\J	.
8g/L	.
8f/	.
8a/	.
8c/J}	.
=11	=11
4r	1F:maj
8r	.
{8f/	.
8e/L	.
8f/	.
8a/	.
8cc/J	.
=12	=12
8ee/L	2A:min
8cc/	.
8a/	.
8e/J	.
8g/L	2D:dom
8f/	.
8f#/	.
8dd/J	.
=13	=13
8cc\L	1G;min
8cc\	.
8b-\	.
8f\J	.
4a/}	.
8r	.
{8cc\	.
=14	=14
8cc#\L	1C:dom
8dd\	.
8b-\	.
8d\J	.
4a/	.
8cc#/L	.
[8g/J	.
=15	=15
8g/L]	1F:dom
8e/	.
8f/	.
[8g/J	.
8g/L]	.
8c#/J	.
12d/L	.
12f/	.
12a/J	.
=16	=16
8cc\L	2G:min
8b-\	.
8ee-\	.
[8cc;\J	.
8cc\]}	2C:dom
*>solo1a	*>solo1a
{4b-\	.
8a/	.
=17	=17
4f/	1F:maj
8a/L	.
8f/J	.
8g/L	.
8f/J	.
[4c/	.
=18||	=18||
4c/]}	2E:h7
4r	.
4r	2A:dom
8r	.
{[8a/	.
=19	=19
4a/]	2D:min
8b-\L	.
8bn\J	.
8cc\L	2G:dom
8a\	.
8b-\	.
16cc\L	.
16b-\JJ	.
=20	=20
8a/L	2C:min
8g/	.
8e-/	.
8c/J	.
24g/LL	2F:dom
24a/	.
24g/JJ	.
8f/L	.
8d-/	.
8A/J	.
=21	=21
4c/	1B-:dom
8B-/L	.
8A/J	.
8c/L	.
[8B-/J	.
4B-/]}	.
=22	=22
2r	2B-:min
2r	2E-:dom
=23	=23
8r	1F:maj
{8e/	.
12f/L	.
12a/	.
12cc/J	.
8ee\L	.
8ee-\	.
8dd\	.
8dd-\J	.
=24	=24
8cc/L	2A:min
8a/	.
8e/	.
8c/J	.
8e-/L	2D:dom
8b/	.
8a-/	.
8an/J	.
=25	=25
4b-\}	1G:min
4r	.
8r	.
{16d/LL	.
16e/JJ	.
16g\LL	.
16b-\	.
16cc\	.
16dd\JJ	.
=26	=26
16ff\LL	2G:min
16dd\	.
16ee-\	.
16een\JJ	.
16cc\LL	.
16cc#\	.
16dd\	.
16ccn\JJ	.
16b-/LL	2C:dom
16a/	.
16g/	.
16f/JJ	.
16e/LL	.
16G/	.
16B-/	.
16d-/JJ	.
=27	=27
4c/	1F:dom
8r	.
8a/	.
16e-/LK	.
[8.en/	.
8e/]	.
8g/J}	.
=28	=28
8r	2G:min
{[8d/	.
2d/_	.
8d/L]	2C:dom
8e/J	.
=29	=29
4f/	1F:dom
8r	.
16e/LL	.
16c/JJ	.
8B/L	.
8c/	.
8e/	.
8g/J	.
=30||	=30||
8f/L	2G:min
8c#/J	.
12d/L	.
12f/	.
12a/J	.
8cc/L	2C:dom
8b-/	.
8d-/	.
8B/J	.
=31	=31
8c/L	1F:dom
8b-/	.
8g/	.
8g#/J	.
2a/}	.
=32	=32
2k	2C:min
4r	2F:dom
8r	.
{[8f/	.
=33	=33
8f/L]	1B-:dom
8b/	.
8b-/	.
8f/J	.
4bn\	.
8b-/L	.
[8a-/J	.
=34	=34
24a-/LL]1B-:dom	.
24b-/	.
24a-/JJ	.
8f/L	.
8g/	.
[8f/J	.
8f/L]	.
8e-/	.
8d/	.
8d-/J	.
=35	=35
8c/L	1F:dom
8B-/J	.
16A/LL	.
16c/	.
16e/	.
16g/JJ	.
8cc/L	.
8g/	.
8e/	.
8c/J	.
=36	=36
8c#/L	2A:min
8d/	.
8B-/	.
8G/J	.
12A/L	2D:dom
12B-/	.
12Bn/J	.
8cn/L	.
8A/J	.
=37	=37
2B-/}	1G:min
2r	.
=38	=38
8r	1C:dom
{[8f/	.
2.f/_	.
=39	=39
4f/]	1F:dom
8c/L	.
8B/J	.
2c/}	.
=40	=40
2r	2G:min
4r	2C:dom
*>solo2a	*>solo2a
{8ff\L	.
8ee\J	.
=41	=41
4ff\	1F:maj
8cc\L	.
8b\J	.
4cc\	.
8a/L	.
8a-/J	.
=42||	=42||
8a/L	2E:h7
8g/	.
8e/	.
8d/J	.
8d-/L	2A:dom
8e/	.
8g/	.
8b-/J	.
=43	=43
8a/L	2D:min
8f/	.
8d/	.
8A/J	.
8d-/L	2G:dom
8a/	.
8f/	.
8d-/J	.
=44	=44
8c/L	2C:min
8B-/J	.
16c/LL	.
16e-/	.
16g/	.
16b-/JJ	.
8dd\L	2F:dom
8dd-\	.
8cc\	.
8bn\J	.
=45	=45
8b-/L	1B-:dom
8f/	.
8g/	.
[8a-/J	.
4a-/]}	.
4r	.
=46	=46
1r	1B-:dom
=47	=47
8r	1F:maj
{8e/	.
12f/L	.
12a/	.
12cc/J	.
8ee\L	.
16ff\L	.
16ff#\J	.
8gg\	.
16ff#\L	.
16ffn\JJ	.
=48	=48
8ee/L	2A:min
8cc/	.
8a/	.
8e/J	.
8e-/L	2D:dom
8b/	.
8a-/	.
8an/J	.
=49	=49
8b-\	1G:min
8r	.
16f#/LL	.
16g/	.
16b-/	.
16dd/JJ	.
8ff\L	.
8dd\J}	.
4r	.
=50	=50
4r	2G:min
8r	.
{8c#/	.
12d/L	2C:dom
12f/	.
12a/J	.
8cc\L	.
8b-\J	.
=51	=51
[4a/	1F:dom
8a\L]	.
16cc\L	.
16b-\JJ	.
8a/L	.
8f/	.
8d/	.
8c/J	.
=52	=52
8g/L	2G:min
8f/	.
8g/	.
[8a-/J	.
8a-/L]	2C:dom
16d/L	.
16c/J	.
8B-/	.
8d/J	.
=53	=53
12e/L	1F:dom
12f/	.
12d/J	.
12e/	.
[6c/	.
4c/]}	.
4r	.
==	==
*-	*-
